X: 1
T: Hanley's Tweed
R: reel
M: 4/4
L: 1/8
K: Ador
A2eA fAeA|BdAB ~G3B|AE~E2 A2 (3Bcd|edef g2fg|
eaag edef|g2fa gedg|ed (3cBA BGGA|1 BedB A2AG:|2 BedB A2Bd||
|:eaaf g2fg|egdg edBd|eaaf g2fe|dG~G2 dGBd|
ea~a2 bg~g2|agab g2ag|ed (3cBA BGGA|1 BedB A2Bd:|2 BedB A2AG||


Tune 1894	Setting 15321

